X:1
T: The Gareloch
C:
R:Strathspey
Q: 128
K:G
M:4/4
L:1/16
|:D2|G,4 D3C B,G,3 G,3G|E3B A3G FD3 D3F|E3B F3c G3d A3e|Bg3 F3c BG3 G2D2|
G,4 D3C B,G,3 G,3G|E3B A3G FD3 D3F|((3E2A2B2) ((3F2B2c2) ((3G2c2d2) ((3A2d2e2) |Bg3 F3c BG3 G2d2|
G,4 D3C B,G,3 G,3G|E3B A3G FD3 D3F|((3E2A2B2) ((3F2B2c2) ((3G2c2d2) ((3A2d2e2) |Bg3 F3c BG3 G2d2|
G,4 D3C B,G,3 G,3G|E3B A3G FD3 D3F|E3B F3c G3d A3e|Bg3 F3c BG3 G2:|
